src/assets/images/svg/fill-notice.svg

<svg xmlns="http://www.w3.org/2000/svg" viewBox="0 0 24 24"><defs><style>.cls-1{fill:none;}</style></defs><title>21</title><g id="fill-notice"><rect class="cls-1" width="24" height="24"/><path d="M5.3,15.3H7.6l4.9,3.3a1.33,1.33,0,0,0,2.1-1.1V6.5a1.33,1.33,0,0,0-2.1-1.1L7.7,8.7H5.3A1.32,1.32,0,0,0,4,10v4A1.32,1.32,0,0,0,5.3,15.3Zm12.6-.2a2.77,2.77,0,0,1-1.3.3V8.7a3.08,3.08,0,0,1,1.3.3,4.13,4.13,0,0,1,1.1.7,2.59,2.59,0,0,1,.7,1.1,2.77,2.77,0,0,1,.3,1.3,3.08,3.08,0,0,1-.3,1.3,4.13,4.13,0,0,1-.7,1.1A10.91,10.91,0,0,1,17.9,15.1Z"/></g></svg>

<svg width="24" height="24" viewBox="0 0 24 24" fill="none" xmlns="http://www.w3.org/2000/svg">
<path d="M5.3 15.3H7.6L12.5 18.6C13.4 19.2 14.6 18.6 14.6 17.5V6.5C14.6 5.4 13.4 4.8 12.5 5.4L7.7 8.7H5.3C4.6 8.7 4 9.3 4 10V14C4 14.7 4.6 15.3 5.3 15.3ZM17.9 15.1C17.5 15.3 17.1 15.4 16.6 15.4V8.7C17 8.7 17.5 8.8 17.9 9C18.3 9.2 18.7 9.4 19 9.7C19.3 10 19.6 10.4 19.7 10.8C19.9 11.2 20 11.6 20 12.1C20 12.5 19.9 13 19.7 13.4C19.5 13.8 19.3 14.2 19 14.5C18.7 14.7 18.3 14.9 17.9 15.1Z" fill="black"/>
</svg>
